X:1
T:Title
%%score 1 { 2 | 3 }
L:1/8
Q:1/4=100
M:4/4
K:G
V:1 treble nm="Grand Piano, Soprano"
V:2 bass nm="Choir Pad, I Will Go and Tell My Savior"
V:3 bass 
V:1
 [B,G]2 [B,G]2 [B,G][DF][CE][B,D] | [B,D]4 [DG]4 | [FA]2 [FA]2 [Ac][GB][FA]G | [FA]6 z2 | %4
w: By~William~Howard~Doane,~1870 * * * * *||||
 [GB]2 [GB]2 [Fd][Fc][FB][FA] | [EG]4 [Gc]2 [Ge]2 | [Gd]2 [Gd]2 [DF]2 [DF]2 | [DG]6 [DF][EG] | %8
w: ||||
 [FA][FA][FA][FA] [FA]2 [Fc]2 | [GB]3 [FA] G2 [FA][GB] | [Ac][Ac][Ac][Ac] [Ac]2 [ce]2 | %11
w: |||
 [Bd]3 [Ac] [GB]2 [GB][Gc] | [Gd][Gd][Gd][Gd] [Fd][Fc][FB][FA] | [EG]4 [Gc]2 [Ge]2 | %14
w: |||
 [Gd]2 [Gd]2 [DF]2 [DF]2 | [DG]8 |] %16
w: ||
V:2
 G,2 G,2 G,G,G,G, | G,4 B,4 | D2 D2 F,G,CB, | D6 z2 | D2 D2 A,A,B,B, | B,4 E2 C2 | %6
 B,2 B,2 A,B,CA, | B,6[K:treble] DD | DDDD D2 D2 | D3 C B,2 DD | DDDD D2 D2 | D4 D2 D[K:bass]A, | %12
 B,B,B,B, A,A,[K:treble]DC | B,4 E2 C2 | B,2 B,2 A,B,CA, | B,8 |] %16
V:3
 G,,2 G,,2 G,,G,,G,,G,, | G,,4 G,,4 | D,2 D,2 D,D,D,D, | D,6 z2 | G,2 G,2 D,D,^D,D, | E,4 C,2 C,2 | %6
 D,2 D,2 D,2 D,2 | G,6 D,D, | D,D,D,D, D,2 D,2 | G,4 G,2 D,D, | D,D,D,D, D,2 D,2 | G,4 G,2 G,G, | %12
 G,G,G,G, D,D,D,^D, | E,4 C,2 C,2 | D,2 D,2 D,2 D,2 | G,8 |] %16

